X: 5
T: The Handsome Young Maidens
R: jig
M: 6/8
L: 1/8
K: Amaj
|: g |aed cdB | Ace aga | bee dee | Bee bag |
aed c2 B | Ac/d/e aga | bee dBG | BAG A2 :|
|: B |c2 A EAc | dff fed | cde aec | Bff fed |
[1 cAE EA/B/c | dff fed | c2 e aec | dBG A2 :|
[2 cAA eAA | dAd fed | eAe fAf | gAg a2 |]


Tune 145	Setting 145

